X: 07063
T: JOSH'S JIG
C: Bob McQuillen 22 Ma4 89
B: Bob's Note Book 7 #63
%R: jig
Z: 2020 John Chambers <jc:trillian.mit.edu>
M: 6/8
L: 1/8
K: D
A \
| FGA GFE | FDF E2A | def efg | afd e2A |\
| FGA GFE | FDF E2A | dfa gec | edd d2 :|
|: E \
| FGA GAB | ABc dAF | GAB AFA | dAF E2A |\
| FGA GAB | ABc dAF | GAB Adf | edc d2 :|
%%begintext align
%% This one's for Josh Fisher of
%% Moscow, Idaho (late of Seattle, WA.) and Madbury, N.H.
%% He's a super dance fan, and he cooks up a mean
%% beef stew. Ask me how I know!
%%endtext

%%sep 1 1 500

%%sep 1 1 500

